X:86
T: Der schwatzhafte Junggeselle
N: Q0139A
O: Mitteleuropa, Deutschland (DDR) , Pommern, Kr. Ueckermuende,
R: Ballade, Indiskretion, verweigerter Beischlaf; Spinnstuben - Lied (?)
M: 4/4
L: 1/8
K: G
D2 | G2FED2G2 | B,2DGG2
D2 | G2FED2G2 | B,2DGG2z
D | DBBBB2zd | dcecA2z
F | FAAAA2zB | BABAG2

@@@ Tune index: 1584
